X:9
T:One More Dance & Then. ASH.09
M:C
L:1/8
Q:1/4=100
S:Harrison & Wall MS,Ashover,Derbyshire,1762-75
R:.Country dance
O:England
A:Derbyshire
Z:vmp.Chris Partington, 2003
K:G
B/c/ | dedBg2 Bc | d>edB c A2B/c/ | dedB gfed | edcB B3:|!
|:A/B/ | cA fc acBA | BGdB gBAG | AGFE DCB,A, | G,cBA {A}G3:|

